assets/images/github.svg

<?xml version="1.0" encoding="UTF-8"?>
<!DOCTYPE svg  PUBLIC '-//W3C//DTD SVG 1.1//EN'  'http://www.w3.org/Graphics/SVG/1.1/DTD/svg11.dtd'>
<svg clip-rule="evenodd" fill-rule="evenodd" stroke-linejoin="round" stroke-miterlimit="2" version="1.1" viewBox="0 0 100 100" xml:space="preserve" xmlns="http://www.w3.org/2000/svg">
    <g transform="matrix(.22098 0 0 .22098 .5 -6.5714)">
        <path d="m400 32h-352c-26.5 0-48 21.5-48 48v352c0 26.5 21.5 48 48 48h352c26.5 0 48-21.5 48-48v-352c0-26.5-21.5-48-48-48zm-122.7 383.7c-8.4 1.5-11.5-3.7-11.5-8 0-5.4 0.2-33 0.2-55.3 0-15.6-5.2-25.5-11.3-30.7 37-4.1 76-9.2 76-73.1 0-18.2-6.5-27.3-17.1-39 1.7-4.3 7.4-22-1.7-45-13.9-4.3-45.7 17.9-45.7 17.9-13.2-3.7-27.5-5.6-41.6-5.6s-28.4 1.9-41.6 5.6c0 0-31.8-22.2-45.7-17.9-9.1 22.9-3.5 40.6-1.7 45-10.6 11.7-15.6 20.8-15.6 39 0 63.6 37.3 69 74.3 73.1-4.8 4.3-9.1 11.7-10.6 22.3-9.5 4.3-33.8 11.7-48.3-13.9-9.1-15.8-25.5-17.1-25.5-17.1-16.2-0.2-1.1 10.2-1.1 10.2 10.8 5 18.4 24.2 18.4 24.2 9.7 29.7 56.1 19.7 56.1 19.7 0 13.9 0.2 36.5 0.2 40.6 0 4.3-3 9.5-11.5 8-66-22.1-112.2-84.9-112.2-158.3 0-91.8 70.2-161.5 162-161.5s166.2 69.7 166.2 161.5c0.1 73.4-44.7 136.3-110.7 158.3zm-98.1-61.1c-1.9 0.4-3.7-0.4-3.9-1.7-0.2-1.5 1.1-2.8 3-3.2 1.9-0.2 3.7 0.6 3.9 1.9 0.3 1.3-1 2.6-3 3zm-9.5-0.9c0 1.3-1.5 2.4-3.5 2.4-2.2 0.2-3.7-0.9-3.7-2.4 0-1.3 1.5-2.4 3.5-2.4 1.9-0.2 3.7 0.9 3.7 2.4zm-13.7-1.1c-0.4 1.3-2.4 1.9-4.1 1.3-1.9-0.4-3.2-1.9-2.8-3.2s2.4-1.9 4.1-1.5c2 0.6 3.3 2.1 2.8 3.4zm-12.3-5.4c-0.9 1.1-2.8 0.9-4.3-0.6-1.5-1.3-1.9-3.2-0.9-4.1 0.9-1.1 2.8-0.9 4.3 0.6 1.3 1.3 1.8 3.3 0.9 4.1zm-9.1-9.1c-0.9 0.6-2.6 0-3.7-1.5s-1.1-3.2 0-3.9c1.1-0.9 2.8-0.2 3.7 1.3 1.1 1.5 1.1 3.3 0 4.1zm-6.5-9.7c-0.9 0.9-2.4 0.4-3.5-0.6-1.1-1.3-1.3-2.8-0.4-3.5 0.9-0.9 2.4-0.4 3.5 0.6 1.1 1.3 1.3 2.8 0.4 3.5zm-6.7-7.4c-0.4 0.9-1.7 1.1-2.8 0.4-1.3-0.6-1.9-1.7-1.5-2.6 0.4-0.6 1.5-0.9 2.8-0.4 1.3 0.7 1.9 1.8 1.5 2.6z" fill="#f9fafb" fill-rule="nonzero"/>
    </g>
</svg>

<?xml version="1.0" encoding="UTF-8" standalone="no"?>
<!DOCTYPE svg PUBLIC "-//W3C//DTD SVG 1.1//EN" "http://www.w3.org/Graphics/SVG/1.1/DTD/svg11.dtd">
<svg width="100%" height="100%" viewBox="0 0 100 100" version="1.1" xmlns="http://www.w3.org/2000/svg" xmlns:xlink="http://www.w3.org/1999/xlink" xml:space="preserve" xmlns:serif="http://www.serif.com/" style="fill-rule:evenodd;clip-rule:evenodd;stroke-linejoin:round;stroke-miterlimit:2;">
    <g id="github" transform="matrix(0.220982,0,0,0.220982,0.5,-6.57143)">
        <path d="M400,32L48,32C21.5,32 0,53.5 0,80L0,432C0,458.5 21.5,480 48,480L400,480C426.5,480 448,458.5 448,432L448,80C448,53.5 426.5,32 400,32ZM277.3,415.7C268.9,417.2 265.8,412 265.8,407.7C265.8,402.3 266,374.7 266,352.4C266,336.8 260.8,326.9 254.7,321.7C291.7,317.6 330.7,312.5 330.7,248.6C330.7,230.4 324.2,221.3 313.6,209.6C315.3,205.3 321,187.6 311.9,164.6C298,160.3 266.2,182.5 266.2,182.5C253,178.8 238.7,176.9 224.6,176.9C210.5,176.9 196.2,178.8 183,182.5C183,182.5 151.2,160.3 137.3,164.6C128.2,187.5 133.8,205.2 135.6,209.6C125,221.3 120,230.4 120,248.6C120,312.2 157.3,317.6 194.3,321.7C189.5,326 185.2,333.4 183.7,344C174.2,348.3 149.9,355.7 135.4,330.1C126.3,314.3 109.9,313 109.9,313C93.7,312.8 108.8,323.2 108.8,323.2C119.6,328.2 127.2,347.4 127.2,347.4C136.9,377.1 183.3,367.1 183.3,367.1C183.3,381 183.5,403.6 183.5,407.7C183.5,412 180.5,417.2 172,415.7C106,393.6 59.8,330.8 59.8,257.4C59.8,165.6 130,95.9 221.8,95.9C313.6,95.9 388,165.6 388,257.4C388.1,330.8 343.3,393.7 277.3,415.7ZM179.2,354.6C177.3,355 175.5,354.2 175.3,352.9C175.1,351.4 176.4,350.1 178.3,349.7C180.2,349.5 182,350.3 182.2,351.6C182.5,352.9 181.2,354.2 179.2,354.6ZM169.7,353.7C169.7,355 168.2,356.1 166.2,356.1C164,356.3 162.5,355.2 162.5,353.7C162.5,352.4 164,351.3 166,351.3C167.9,351.1 169.7,352.2 169.7,353.7ZM156,352.6C155.6,353.9 153.6,354.5 151.9,353.9C150,353.5 148.7,352 149.1,350.7C149.5,349.4 151.5,348.8 153.2,349.2C155.2,349.8 156.5,351.3 156,352.6ZM143.7,347.2C142.8,348.3 140.9,348.1 139.4,346.6C137.9,345.3 137.5,343.4 138.5,342.5C139.4,341.4 141.3,341.6 142.8,343.1C144.1,344.4 144.6,346.4 143.7,347.2ZM134.6,338.1C133.7,338.7 132,338.1 130.9,336.6C129.8,335.1 129.8,333.4 130.9,332.7C132,331.8 133.7,332.5 134.6,334C135.7,335.5 135.7,337.3 134.6,338.1ZM128.1,328.4C127.2,329.3 125.7,328.8 124.6,327.8C123.5,326.5 123.3,325 124.2,324.3C125.1,323.4 126.6,323.9 127.7,324.9C128.8,326.2 129,327.7 128.1,328.4ZM121.4,321C121,321.9 119.7,322.1 118.6,321.4C117.3,320.8 116.7,319.7 117.1,318.8C117.5,318.2 118.6,317.9 119.9,318.4C121.2,319.1 121.8,320.2 121.4,321Z" style="fill:rgb(249,250,251);fill-rule:nonzero;"/>
    </g>
</svg>
